src/theme/bottom-grid.svg

<svg xmlns="http://www.w3.org/2000/svg" width="52" height="386" viewBox="0 0 52 386"><defs><linearGradient id="a" x1="0%" x2="0%" y1="0%" y2="100%"><stop offset="0%" stop-color="#fff" stop-opacity="0"/><stop offset="30%" stop-color="#fff" stop-opacity=".05"/><stop offset="70%" stop-color="#fff" stop-opacity=".15"/><stop offset="100%" stop-color="#fff" stop-opacity=".3"/></linearGradient><mask id="b"><rect width="100%" height="100%" fill="url(#a)"/></mask></defs><g mask="url(#b)"><path stroke="#E5E5EC" stroke-opacity=".32" stroke-width=".9" d="M0 351.8h52M0 226.7h52M0 101.6h52M0 289.2h52M0 164.1h52M0 39h52M26.7-88.6v630.5"/><path stroke="#BAC1C9" stroke-width="1.7" d="M26.7 89.1v25m12.5-12.5h-25m12.5-75.1v25M39.2 39h-25m12.5 112.6v25m12.5-12.5h-25m12.5 112.6v25m12.5-12.5h-25m12.5-75v25m12.5-12.5h-25m12.5 112.6v25m12.5-12.5h-25"/></g></svg>

<svg
  width="52"
  height="386"
  viewBox="0 0 52 386"
  xmlns="http://www.w3.org/2000/svg"
  >
  <defs>
    <linearGradient
      id="fadeGradient"
      x1="0%"
      y1="0%"
      x2="0%"
      y2="100%"
      >
      <stop
        offset="0%"
        style="stop-color:white;stop-opacity:0"
        />
      <stop
        offset="30%"
        style="stop-color:white;stop-opacity:.05"
        />
      <stop
        offset="70%"
        style="stop-color:white;stop-opacity:.15"
        />
      <stop
        offset="100%"
        style="stop-color:white;stop-opacity:.3"
        />
    </linearGradient>
    <mask id="fadeMask">
      <rect
        width="100%"
        height="100%"
        fill="url(#fadeGradient)"
        />
    </mask>
  </defs>
  <g mask="url(#fadeMask)">
    <path
      d="M0 351.8L52 351.8"
      stroke="#E5E5EC"
      stroke-opacity="0.32"
      stroke-width="0.9"
      />
    <path
      d="M0 226.7L52 226.7"
      stroke="#E5E5EC"
      stroke-opacity="0.32"
      stroke-width="0.9"
      />
    <path
      d="M0 101.6L52 101.6"
      stroke="#E5E5EC"
      stroke-opacity="0.32"
      stroke-width="0.9"
      />
    <path
      d="M0 289.2L52 289.2"
      stroke="#E5E5EC"
      stroke-opacity="0.32"
      stroke-width="0.9"
      />
    <path
      d="M0 164.1L52 164.1"
      stroke="#E5E5EC"
      stroke-opacity="0.32"
      stroke-width="0.9"
      />
    <path
      d="M0 39.0L52 39.0"
      stroke="#E5E5EC"
      stroke-opacity="0.32"
      stroke-width="0.9"
      />
    <path
      d="M26.7 -88.6L26.7 541.9"
      stroke="#E5E5EC"
      stroke-opacity="0.32"
      stroke-width="0.9"
      />
    <path
      d="M26.7 89.1L26.7 114.1"
      stroke="#BAC1C9"
      stroke-width="1.7"
      />
    <path
      d="M39.2 101.6L14.2 101.6"
      stroke="#BAC1C9"
      stroke-width="1.7"
      />
    <path
      d="M26.7 26.5L26.7 51.5"
      stroke="#BAC1C9"
      stroke-width="1.7"
      />
    <path
      d="M39.2 39.0L14.2 39.0"
      stroke="#BAC1C9"
      stroke-width="1.7"
      />
    <path
      d="M26.7 151.6L26.7 176.6"
      stroke="#BAC1C9"
      stroke-width="1.7"
      />
    <path
      d="M39.2 164.1L14.2 164.1"
      stroke="#BAC1C9"
      stroke-width="1.7"
      />
    <path
      d="M26.7 276.7L26.7 301.7"
      stroke="#BAC1C9"
      stroke-width="1.7"
      />
    <path
      d="M39.2 289.2L14.2 289.2"
      stroke="#BAC1C9"
      stroke-width="1.7"
      />
    <path
      d="M26.7 214.2L26.7 239.2"
      stroke="#BAC1C9"
      stroke-width="1.7"
      />
    <path
      d="M39.2 226.7L14.2 226.7"
      stroke="#BAC1C9"
      stroke-width="1.7"
      />
    <path
      d="M26.7 339.3L26.7 364.3"
      stroke="#BAC1C9"
      stroke-width="1.7"
      />
    <path
      d="M39.2 351.8L14.2 351.8"
      stroke="#BAC1C9"
      stroke-width="1.7"
      />
  </g>
</svg>
